assets/capabilities/alarm_charging.svg

<svg height="960" viewBox="0 0 960 960" width="960" xmlns="http://www.w3.org/2000/svg"><path d="m923.862199 82.8472593h-52.879258v-19.190932c-.042274-35.1388802-28.501195-63.61402343-63.620057-63.65632428h-743.6469269c-35.1189422-.01070684-63.62078544 28.42153658-63.7159571 63.56036968v267.0802003c.04227373 35.13888 28.5011951 63.614023 63.6200571 63.656321h109.2876349v.230291h115.367695c7.561184 15.96045 23.622698 26.146506 41.275358 26.176431 1.18916 0 2.32078-.268673 3.47158-.345437 10.845417 41.542144 48.308547 70.554 91.220076 70.641824h95.899996c5.645973 0 10.222939-4.579578 10.222939-10.22877v-11.207504h68.472597c6.370158.211376 12.348956-3.068363 15.596585-8.555688 3.24763-5.487326 3.24763-12.309603 0-17.796929-3.247629-5.487326-9.226427-8.767064-15.596585-8.555688h-68.472597v-119.808988h68.472597c6.370158.211376 12.348956-3.068363 15.596585-8.555689 3.24763-5.487325 3.24763-12.309603 0-17.796928-3.247629-5.487326-9.226427-8.767065-15.596585-8.555689h-68.472597v-11.207504c0-5.649192-4.576966-10.228767-10.222939-10.228767h-95.899996c-42.911529.087822-80.374659 29.099677-91.220076 70.641821-1.16998 0-2.28242-.345437-3.47158-.345437-17.645726.03732-33.697973 10.222231-41.256178 26.176431h-115.386875v.153528h-109.1917349c-13.512056-.010583-24.4631019-10.967871-24.4736789-24.487629v-267.0802003c.010577-13.5197581 10.9616229-24.4770462 24.4736789-24.4876292h743.6277469c13.512056.010583 24.463102 10.9678711 24.473679 24.4876292v267.0802003c-.010577 13.519758-10.961623 24.477046-24.473679 24.487629h-149.143674v39.168692h149.143674c35.118862-.042298 63.577783-28.517441 63.620057-63.656321v-19.190932h52.898438c19.439628-.063484 35.159015-15.860514 35.13778-35.311315v-158.075707c-.031587-19.4133516-15.735566-35.152012-35.13778-35.2153597zm-3.95108 189.3569257h-48.928178v-150.188234h48.947358z" transform="translate(0 235)"/></svg>

<?xml version="1.0" encoding="UTF-8"?>
<svg width="960px" height="960px" viewBox="0 0 960 960" version="1.1" xmlns="http://www.w3.org/2000/svg" xmlns:xlink="http://www.w3.org/1999/xlink">
    <title>custom-capabilities/battery_charging</title>
    <g id="custom-capabilities/battery_charging" stroke="none" stroke-width="1" fill="none" fill-rule="evenodd">
        <g id="status/battery_charging" transform="translate(0.000000, 235.000000)" fill="#000000" fill-rule="nonzero">
            <path d="M923.862199,82.8472593 L870.982941,82.8472593 L870.982941,63.6563273 C870.940667,28.5174471 842.481746,0.0423038747 807.362884,3.02471812e-06 L63.7159571,3.02471812e-06 C28.5970149,-0.0107038188 0.0951716585,28.4215396 0,63.5603727 L0,330.640573 C0.0422737288,365.779453 28.5011951,394.254596 63.6200571,394.296894 L172.907692,394.296894 L172.907692,394.527185 L288.275387,394.527185 C295.836571,410.487635 311.898085,420.673691 329.550745,420.703616 C330.739905,420.703616 331.871525,420.434943 333.022325,420.358179 C343.867742,461.900323 381.330872,490.912179 424.242401,491.000003 L520.142397,491.000003 C525.78837,491.000003 530.365336,486.420425 530.365336,480.771233 L530.365336,469.563729 L598.837933,469.563729 C605.208091,469.775105 611.186889,466.495366 614.434518,461.008041 C617.682148,455.520715 617.682148,448.698438 614.434518,443.211112 C611.186889,437.723786 605.208091,434.444048 598.837933,434.655424 L530.365336,434.655424 L530.365336,314.846436 L598.837933,314.846436 C605.208091,315.057812 611.186889,311.778073 614.434518,306.290747 C617.682148,300.803422 617.682148,293.981144 614.434518,288.493819 C611.186889,283.006493 605.208091,279.726754 598.837933,279.93813 L530.365336,279.93813 L530.365336,268.730626 C530.365336,263.081434 525.78837,258.501859 520.142397,258.501859 L424.242401,258.501859 C381.330872,258.589681 343.867742,287.601536 333.022325,329.14368 C331.852345,329.14368 330.739905,328.798243 329.550745,328.798243 C311.905019,328.835563 295.852772,339.020474 288.294567,354.974674 L172.907692,354.974674 L172.907692,355.128202 L63.7159571,355.128202 C50.2039011,355.117619 39.2528552,344.160331 39.2422782,330.640573 L39.2422782,63.5603727 C39.2528552,50.0406146 50.2039011,39.0833265 63.7159571,39.0727435 L807.343704,39.0727435 C820.85576,39.0833265 831.806806,50.0406146 831.817383,63.5603727 L831.817383,330.640573 C831.806806,344.160331 820.85576,355.117619 807.343704,355.128202 L658.20003,355.128202 L658.20003,394.296894 L807.343704,394.296894 C842.462566,394.254596 870.921487,365.779453 870.963761,330.640573 L870.963761,311.449641 L923.862199,311.449641 C943.301827,311.386157 959.021214,295.589127 958.999979,276.138326 L958.999979,118.062619 C958.968392,98.6492674 943.264413,82.910607 923.862199,82.8472593 L923.862199,82.8472593 Z M919.911119,272.204185 L870.982941,272.204185 L870.982941,122.015951 L919.930299,122.015951 L919.911119,272.204185 Z" id="Shape"></path>
        </g>
    </g>
</svg>
